**harm	**harte	**timestamp	**phrase	**leadinstrument	**kern
*M4/4	*M4/4	*	*	*	*
*D:	*D:	*	*	*	*D:
1r;	N	0	.	r	1r;
1r;	N	1.147	.	r	1r;
=1	=1	=1	=1	=1	=1
*>A_intro	*>A_intro	*>A_intro	*>A_intro	*>A_intro	*>A_intro
1Im7	D:7	1.434	newline	brass	1D 1f# 1a 1cc#
=2	=2	=2	=2	=2	=2
1Im7	D:7	3.729	.	brass	1D 1f# 1a 1cc#
=3	=3	=3	=3	=3	=3
1IV	G:maj	6.023	.	brass	1G 1b 1dd
=4	=4	=4	=4	=4	=4
1IV	G:maj	8.318	.	brass	1G 1b 1dd
=5	=5	=5	=5	=5	=5
1Im7	D:7	10.612	newline	brass	1D 1f# 1a 1cc#
=6	=6	=6	=6	=6	=6
1Im7	D:7	12.924	.	brass	1D 1f# 1a 1cc#
=7	=7	=7	=7	=7	=7
1IV	G:maj	15.237	.	brass	1G 1b 1dd
=8	=8	=8	=8	=8	=8
1IV	G:maj	17.549	.	brass	1G 1b 1dd
=9	=9	=9	=9	=9	=9
1Im7	D:7	19.861	newline	brass	1D 1f# 1a 1cc#
=10	=10	=10	=10	=10	=10
1Im7	D:7	22.22	.	brass	1D 1f# 1a 1cc#
=11	=11	=11	=11	=11	=11
1IV	G:maj	24.58	.	brass	1G 1b 1dd
=12	=12	=12	=12	=12	=12
1IV	G:maj	26.939	.	brass	1G 1b 1dd
=13	=13	=13	=13	=13	=13
1Im7	D:7	29.298	newline	voice	1D 1f# 1a 1cc#
=14	=14	=14	=14	=14	=14
1Im7	D:7	31.665	.	voice	1D 1f# 1a 1cc#
=15	=15	=15	=15	=15	=15
1IV	G:maj	34.032	.	voice	1G 1b 1dd
=16	=16	=16	=16	=16	=16
1IV	G:maj	36.399	.	voice	1G 1b 1dd
=17	=17	=17	=17	=17	=17
1Im7	D:7	38.766	newline	voice	1D 1f# 1a 1cc#
=18	=18	=18	=18	=18	=18
1Im7	D:7	41.122	.	voice	1D 1f# 1a 1cc#
=19	=19	=19	=19	=19	=19
1IV	G:maj	43.477	.	voice	1G 1b 1dd
=20	=20	=20	=20	=20	=20
1IV	G:maj	45.833	.	voice	1G 1b 1dd
=21	=21	=21	=21	=21	=21
*>B2_verse	*>B2_verse	*>B2_verse	*>B2_verse	*>B2_verse	*>B2_verse
1Im7	D:7	48.188	newline	voice	1D 1f# 1a 1cc#
=22	=22	=22	=22	=22	=22
1Im7	D:7	50.528	.	voice	1D 1f# 1a 1cc#
=23	=23	=23	=23	=23	=23
1IV	G:maj	52.868	.	voice	1G 1b 1dd
=24	=24	=24	=24	=24	=24
1IV	G:maj	55.209	.	voice	1G 1b 1dd
=25	=25	=25	=25	=25	=25
1Im7	D:7	57.549	newline	voice	1D 1f# 1a 1cc#
=26	=26	=26	=26	=26	=26
1Im7	D:7	59.865	.	voice	1D 1f# 1a 1cc#
=27	=27	=27	=27	=27	=27
1IV	G:maj	62.181	.	voice	1G 1b 1dd
=28	=28	=28	=28	=28	=28
1IV	G:maj	64.498	.	voice	1G 1b 1dd
=29	=29	=29	=29	=29	=29
1vi	B:min	66.814	newline	voice	1B 1dd 1ff#
=30	=30	=30	=30	=30	=30
1vi	B:min	69.111	.	voice	1B 1dd 1ff#
=31	=31	=31	=31	=31	=31
1IV	G:maj	71.407	.	voice	1G 1b 1dd
=32	=32	=32	=32	=32	=32
1V	A:maj	73.704	.	voice	1A 1cc# 1ee
=33	=33	=33	=33	=33	=33
*>C_chorus	*>C_chorus	*>C_chorus	*>C_chorus	*>C_chorus	*>C_chorus
1I	D:maj	76.001	newline	voice	1D 1f# 1a
=34	=34	=34	=34	=34	=34
1I	D:maj	78.298	.	voice	1D 1f# 1a
=35	=35	=35	=35	=35	=35
1IV	G:maj	80.596	.	voice	1G 1b 1dd
=36	=36	=36	=36	=36	=36
1IV	G:maj	82.893	.	voice	1G 1b 1dd
=37	=37	=37	=37	=37	=37
1I	D:maj	85.19	newline	voice	1D 1f# 1a
=38	=38	=38	=38	=38	=38
1I	D:maj	87.498	.	voice	1D 1f# 1a
=39	=39	=39	=39	=39	=39
1IV	G:maj	89.806	.	voice	1G 1b 1dd
=40	=40	=40	=40	=40	=40
1IV	G:maj	92.114	.	voice	1G 1b 1dd
=41	=41	=41	=41	=41	=41
*>D_trans	*>D_trans	*>D_trans	*>D_trans	*>D_trans	*>D_trans
1vi	B:min	94.422	newline	voice	1B 1dd 1ff#
=42	=42	=42	=42	=42	=42
4vi	B:min	96.742	.	voice	4B 4dd 4ff#
4V	A:maj	97.322	.	voice	4A 4cc# 4ee
2IV	G:maj	97.902	.	voice	2G 2b 2dd
=43	=43	=43	=43	=43	=43
1vi	B:min	99.062	.	voice	1B 1dd 1ff#
=44	=44	=44	=44	=44	=44
4vi	B:min	101.383	.	voice	4B 4dd 4ff#
4IV	G:maj	101.963	.	voice	4G 4b 4dd
2V	A:maj	102.543	.	voice	2A 2cc# 2ee
=45	=45	=45	=45	=45	=45
*>B_verse	*>B_verse	*>B_verse	*>B_verse	*>B_verse	*>B_verse
1I	D:maj	103.703	newline	voice	1D 1f# 1a
=46	=46	=46	=46	=46	=46
1I	D:maj	106.013	.	voice	1D 1f# 1a
=47	=47	=47	=47	=47	=47
1IV	G:maj	108.323	.	voice	1G 1b 1dd
=48	=48	=48	=48	=48	=48
1IV	G:maj	110.633	.	voice	1G 1b 1dd
=49	=49	=49	=49	=49	=49
1I	D:maj	112.943	newline	voice	1D 1f# 1a
=50	=50	=50	=50	=50	=50
1I	D:maj	115.235	.	voice	1D 1f# 1a
=51	=51	=51	=51	=51	=51
1IV	G:maj	117.526	.	voice	1G 1b 1dd
=52	=52	=52	=52	=52	=52
1IV	G:maj	119.818	.	voice	1G 1b 1dd
=53	=53	=53	=53	=53	=53
1vi	B:min	122.11	newline	voice	1B 1dd 1ff#
=54	=54	=54	=54	=54	=54
1vi	B:min	124.413	.	voice	1B 1dd 1ff#
=55	=55	=55	=55	=55	=55
1IV	G:maj	126.715	.	voice	1G 1b 1dd
=56	=56	=56	=56	=56	=56
1V	A:maj	129.018	.	voice	1A 1cc# 1ee
=57	=57	=57	=57	=57	=57
*>C_chorus	*>C_chorus	*>C_chorus	*>C_chorus	*>C_chorus	*>C_chorus
1I	D:maj	131.321	newline	voice	1D 1f# 1a
=58	=58	=58	=58	=58	=58
1I	D:maj	133.597	.	voice	1D 1f# 1a
=59	=59	=59	=59	=59	=59
1IV	G:maj	135.874	.	voice	1G 1b 1dd
=60	=60	=60	=60	=60	=60
1IV	G:maj	138.151	.	voice	1G 1b 1dd
=61	=61	=61	=61	=61	=61
1I	D:maj	140.427	newline	voice	1D 1f# 1a
=62	=62	=62	=62	=62	=62
1I	D:maj	142.711	.	voice	1D 1f# 1a
=63	=63	=63	=63	=63	=63
1IV	G:maj	144.994	.	voice	1G 1b 1dd
=64	=64	=64	=64	=64	=64
1IV	G:maj	147.278	.	voice	1G 1b 1dd
=65	=65	=65	=65	=65	=65
*>D_trans	*>D_trans	*>D_trans	*>D_trans	*>D_trans	*>D_trans
1vi	B:min	149.562	newline	voice	1B 1dd 1ff#
=66	=66	=66	=66	=66	=66
4vi	B:min	151.847	.	voice	4B 4dd 4ff#
4V	A:maj	152.419	.	voice	4A 4cc# 4ee
2IV	G:maj	152.99	.	voice	2G 2b 2dd
=67	=67	=67	=67	=67	=67
1vi	B:min	154.133	.	voice	1B 1dd 1ff#
=68	=68	=68	=68	=68	=68
4vi	B:min	156.419	.	voice	4B 4dd 4ff#
4IV	G:maj	156.99	.	voice	4G 4b 4dd
2V	A:maj	157.562	.	voice	2A 2cc# 2ee
=69	=69	=69	=69	=69	=69
*>C_chorus	*>C_chorus	*>C_chorus	*>C_chorus	*>C_chorus	*>C_chorus
1I	D:maj	158.704	newline	voice	1D 1f# 1a
=70	=70	=70	=70	=70	=70
1I	D:maj	160.969	.	voice	1D 1f# 1a
=71	=71	=71	=71	=71	=71
1IV	G:maj	163.233	.	voice	1G 1b 1dd
=72	=72	=72	=72	=72	=72
1IV	G:maj	165.497	.	voice	1G 1b 1dd
=73	=73	=73	=73	=73	=73
1I	D:maj	167.761	newline	voice	1D 1f# 1a
=74	=74	=74	=74	=74	=74
1I	D:maj	170.047	.	voice	1D 1f# 1a
=75	=75	=75	=75	=75	=75
1IV	G:maj	172.332	.	voice	1G 1b 1dd
=76	=76	=76	=76	=76	=76
1IV	G:maj	174.618	.	voice	1G 1b 1dd
=77	=77	=77	=77	=77	=77
1I	D:maj	176.904	newline	voice	1D 1f# 1a
=78	=78	=78	=78	=78	=78
1I	D:maj	179.172	.	voice	1D 1f# 1a
=79	=79	=79	=79	=79	=79
1IV	G:maj	181.441	.	voice	1G 1b 1dd
=80	=80	=80	=80	=80	=80
1IV	G:maj	183.709	.	voice	1G 1b 1dd
=81	=81	=81	=81	=81	=81
1I	D:maj	185.978	newline	voice	1D 1f# 1a
=82	=82	=82	=82	=82	=82
1I	D:maj	188.252	.	voice	1D 1f# 1a
=83	=83	=83	=83	=83	=83
1IV	G:maj	190.527	.	voice	1G 1b 1dd
=84	=84	=84	=84	=84	=84
1IV	G:maj	192.802	.	voice	1G 1b 1dd
=85	=85	=85	=85	=85	=85
*>D_trans	*>D_trans	*>D_trans	*>D_trans	*>D_trans	*>D_trans
1vi	B:min	195.076	newline	voice	1B 1dd 1ff#
=86	=86	=86	=86	=86	=86
4vi	B:min	197.341	.	voice	4B 4dd 4ff#
4V	A:maj	197.907	.	voice	4A 4cc# 4ee
2IV	G:maj	198.473	.	voice	2G 2b 2dd
=87	=87	=87	=87	=87	=87
1vi	B:min	199.606	.	voice	1B 1dd 1ff#
=88	=88	=88	=88	=88	=88
4vi	B:min	201.871	.	voice	4B 4dd 4ff#
4IV	G:maj	202.437	.	voice	4G 4b 4dd
2V	A:maj	203.003	.	voice	2A 2cc# 2ee
=89	=89	=89	=89	=89	=89
*>C_chorus	*>C_chorus	*>C_chorus	*>C_chorus	*>C_chorus	*>C_chorus
1I	D:maj	204.136	newline	voice	1D 1f# 1a
=90	=90	=90	=90	=90	=90
1I	D:maj	206.401	.	voice	1D 1f# 1a
=91	=91	=91	=91	=91	=91
1IV	G:maj	208.666	.	voice	1G 1b 1dd
=92	=92	=92	=92	=92	=92
1IV	G:maj	210.931	.	voice	1G 1b 1dd
=93	=93	=93	=93	=93	=93
1I	D:maj	213.196	newline	voice	1D 1f# 1a
=94	=94	=94	=94	=94	=94
1I	D:maj	215.468	.	voice	1D 1f# 1a
=95	=95	=95	=95	=95	=95
1IV	G:maj	217.741	.	voice	1G 1b 1dd
=96	=96	=96	=96	=96	=96
1IV	G:maj	220.013	.	voice	1G 1b 1dd
=97	=97	=97	=97	=97	=97
*>D2_outro	*>D2_outro	*>D2_outro	*>D2_outro	*>D2_outro	*>D2_outro
1vi	B:min	222.286	newline	brass	1B 1dd 1ff#
=98	=98	=98	=98	=98	=98
4vi	B:min	224.572	.	brass	4B 4dd 4ff#
4V	A:maj	225.144	.	brass	4A 4cc# 4ee
2IV	G:maj	225.716	.	brass	2G 2b 2dd
=99	=99	=99	=99	=99	=99
1vi	B:min	226.859	.	brass	1B 1dd 1ff#
=100	=100	=100	=100	=100	=100
4vi	B:min	229.146	.	brass	4B 4dd 4ff#
4IV	G:maj	229.717	.	brass	4G 4b 4dd
2V	A:maj	230.289	.	brass	2A 2cc# 2ee
=101	=101	=101	=101	=101	=101
1I	D:maj	231.432	newline	brass	1D 1f# 1a
1r;	N	232.237	.	r	1r;
1r;	N	243.892	.	r	1r;
*-	*-	*-	*-	*-	*-
!!!OTL: Tryin' To Live My Life Without You
!!!COC: Bob Seger
!!!BillboardChartDate: 1981/10/24
!!!BillboardPeak: 5
!!!BillboardWeeksOnChart: 19
!!!SampleTargetRank: 11
!!!SampleActualRank: 11
!!!SampleID#: 0830
!!!RDF**harmony: **recip + pitch class of root + harmonic quality
!!!RDF**harte: Chris Harte's syntax, used by MIREX
!!!RDF**phrase: newline = linebreak in original McGill transcription
!!!RDF**timestamp: McGill audio timestamp in seconds
!!!RDF**leadinstrument: original McGill primary instrumentation annotation
!!!RDT: 2017/01/12/
!!!ENC: Nathaniel Condit-Schultz
!!!EST: Awating manual error checking and editing.
